!!!!SEGMENT: pl-cz--iii-506--004_neumann-wawrzyniec--vesperae-c-laudate-pueri.krn
!!!cenid: 17xx:243
!!!COM: Neumann, Wawrzyniec
!!!COM-rism: pe30107352
!!!CDT: ~1700-~1799
!!!CNT:
!!!OTL: Vesperae C - Laudate pueri
!!!PDT:
!!!AGN: Sacred
!!!SMS-siglum: PL-CZ
!!!SMS-shelfmark: III-506
!!!NIFC-rismID:
!!!URL-scan: http://repozytorium.nifc.pl/skany/pl-cz-nut--iii-506
!!!ONB-nifc: UWAGA: części Vesperae: Dixit, Confitebor, Beatus,
**kern	**fba	**kern	**dynam	**kern	**dynam	**kern	**text	**kern	**text	**kern	**text	**kern	**text	**kern	**kern
*part9	*	*part8	*part8	*part7	*part7	*part6	*part6	*part5	*part5	*part4	*part4	*part3	*part3	*part2	*part1
*staff9	*	*staff8	*	*staff7	*	*staff6	*staff6	*staff5	*staff5	*staff4	*staff4	*staff3	*staff3	*staff2	*staff1
*group4	*	*group3	*	*group3	*	*group2	*	*group2	*	*group2	*	*group2	*	*group1	*group1
*I"Organo	*	*I"Violino Secundo.	*	*I"Violino Primo.	*	*I"Baſso Conc.	*	*I"Tenore ad Lib.	*	*I"Alto Conc.	*	*I"Canto Conc.	*	*I"Clarino Secodno	*I"Clarino Primo
*I'Org	*	*I'Vn II	*	*I'Vn I	*	*I'B	*	*I'T	*	*I'A	*	*I'C	*	*I'Clno II	*I'Clno I
*clefF4	*	*clefG2	*	*clefG2	*	*clefF4	*	*clefC4	*	*clefC3	*	*clefC1	*	*clefG2	*clefG2
*k[f#]	*	*k[f#]	*	*k[f#]	*	*k[f#]	*	*k[f#]	*	*k[f#]	*	*k[f#]	*	*k[f#]	*k[f#]
*G:	*	*G:	*	*G:	*	*G:	*	*G:	*	*G:	*	*G:	*	*G:	*G:
*M4/4	*	*M4/4	*	*M4/4	*	*M4/4	*	*M4/4	*	*M4/4	*	*M4/4	*	*M4/4	*M4/4
*met(c)	*	*met(c)	*	*met(c)	*	*met(c)	*	*met(c)	*	*met(c)	*	*met(c)	*	*met(c)	*met(c)
=1	=1	=1	=1	=1	=1	=1	=1	=1	=1	=1	=1	=1	=1	=1	=1
!	!	!	!LO:DY:t=pi:	!	!	!	!	!	!	!LO:TX:b:t=2	!	!LO:TX:a:t=problem: w całym utworze symbol S: oznacza Solo, T:Tutti	!	!	!
!LO:TX:a:t=S&colon;	!	!	!LO:DY:a	!	!LO:DY:a	!LO:TX:a:t=5	!	!LO:TX:a:t=5	!	!LO:TX:a:t=Allo:	!	!LO:TX:a:t=S&colon;	!	!LO:TX:a:t=Laudate Pueri Tacet	!LO:TX:a:t=Laudate Pueri Tacet
4GG/	.	4B/	p	8G/L	p	00r	.	00r	.	0r	.	8r	.	1ryy	1ryy
.	.	.	.	8d/J	.	.	.	.	.	.	.	8d/	Lau-	.	.
8r	.	8r	.	4g/	.	.	.	.	.	.	.	8g/	-da-	.	.
8E\	.	8B/	.	.	.	.	.	.	.	.	.	8g/	-te	.	.
4.C#X/	.	8e/L	.	2r	.	.	.	.	.	.	.	8g\	Pu-	.	.
.	.	16f#/L	.	.	.	.	.	.	.	.	.	16a\	-e-	.	.
.	.	16g/JJ	.	.	.	.	.	.	.	.	.	16b,\	-ri	.	.
.	.	8f#/L	.	.	.	.	.	.	.	.	.	8a\	Do-	.	.
8C#/	6 4	8e/J	.	.	.	.	.	.	.	.	.	8g\	-mi-	.	.
.	5 3	.	.	.	.	.	.	.	.	.	.	.	.	.	.
=2	=2	=2	=2	=2	=2	=2	=2	=2	=2	=2	=2	=2	=2	=2	=2
4D\	.	4A/	.	8r	.	.	.	.	.	.	.	8f#,/	-num	1ryy	1ryy
.	.	.	.	8d/	.	.	.	.	.	.	.	8d/	Lau-	.	.
8r	.	8r	.	4cc\	.	.	.	.	.	.	.	8cc\	-da-	.	.
16A\LL	.	16f#/LL	.	.	.	.	.	.	.	.	.	8cc,\	-te	.	.
16G\JJ	.	16g/JJ	.	.	.	.	.	.	.	.	.	.	.	.	.
4.F#\	.	8a/L	.	4r	.	.	.	.	.	.	.	8cc\	No-	.	.
.	.	16b/L	.	.	.	.	.	.	.	.	.	16dd\LL	-men	.	.
.	.	16cc/JJ	.	.	.	.	.	.	.	.	.	16ee,\JJ	.	.	.
.	6 4	8b/L	.	8r	.	.	.	.	.	.	.	8dd\	Do-	.	.
8F#\	5	8a/J	.	8cc\	.	.	.	.	.	.	.	8cc\	-mi-	.	.
=3	=3	=3	=3	=3	=3	=3	=3	=3	=3	=3	=3	=3	=3	=3	=3
.	.	.	.	.	.	.	.	.	.	.	.	8qqcc,/	.	.	.
4G\	.	8g/	.	4b\	.	.	.	.	.	8r	.	8b,\	-ni,	1ryy	1ryy
!	!	!	!	!	!	!	!	!	!	!LO:TX:a:t=S&colon;	!	!	!	!	!
.	.	4g/	.	.	.	.	.	.	.	8b\	Sit	8dd\	Sit	.	.
8r	.	.	.	(4dd\	.	.	.	.	.	8b\	no-	8dd\	no-	.	.
8G\	.	8g/	.	.	.	.	.	.	.	8b\	-men	8dd,\	-men	.	.
!LO:TX:t=P:problem:mixed beam	!	!	!	!	!	!	!	!	!	!	!	!	!	!	!
8GG/L	6 4	8g/L	.	4ee\	.	.	.	.	.	8cc\	Do-	16ee\	Do-	.	.
.	.	.	.	.	.	.	.	.	.	.	.	16ee\	-mi-	.	.
8G\	.	8g/	.	.	.	.	.	.	.	16cc\	-mi-	8ee,\	-ni	.	.
.	.	.	.	.	.	.	.	.	.	16b\	-ni	.	.	.	.
8GG/	7	8a/	.	4ff#\)	.	.	.	.	.	8a\	Be-	8ff#\	Be-	.	.
8G\J	.	8a/J	.	.	.	.	.	.	.	8d\	-ne-	8ff#\	-ne-	.	.
!	!	!	!	!	!	!	!	!	!	!	!	!LO:LB:g=original	!	!	!
=4	=4	=4	=4	=4	=4	=4	=4	=4	=4	=4	=4	=4	=4	=4	=4
!LO:TX:t=P:problem:mixed beam	!	!	!	!	!	!	!	!	!	!	!	!	!	!	!
8GG/L	8	4b/	.	4gg\	.	.	.	.	.	16b\LL	-dic-	8gg\	-dic-	1ryy	1ryy
.	.	.	.	.	.	.	.	.	.	16a\JJ	.	.	.	.	.
8G\J	.	.	.	.	.	.	.	.	.	4g\	-tum	8gg\	-tum,	.	.
4GG/	.	4r	.	(16bb\LL	.	.	.	.	.	.	.	8r	.	.	.
.	.	.	.	16gg\)	.	.	.	.	.	.	.	.	.	.	.
.	.	.	.	(16gg\	.	.	.	.	.	8r	.	16gg\LL	ex	.	.
.	.	.	.	16ee\JJ)	.	.	.	.	.	.	.	16ee\JJ	.	.	.
.	.	.	.	8qqdd/	.	.	.	.	.	.	.	8qqdd/	.	.	.
8r	.	8r	.	4.cc#X\	.	.	.	.	.	4r	.	4cc#X,\	hoc	.	.
!LO:TX:t=P:problem:mixed beam	!	!	!	!	!	!	!	!	!	!	!	!	!	!	!
8AA/L	#_	4e/	.	.	.	.	.	.	.	.	.	.	.	.	.
8G\	.	.	.	.	.	.	.	.	.	8e\	nunc	8cc#\	nunc	.	.
8F#\J	6	8a/	.	8dd\	.	.	.	.	.	8f#\	et	8dd\	et	.	.
=5	=5	=5	=5	=5	=5	=5	=5	=5	=5	=5	=5	=5	=5	=5	=5
!	!	!	!	!	!	!	!	!	!	!LO:TX:a:t=SIC:l=usque	!	!LO:TX:a:t=SIC:l=usque	!	!	!
4.C#X/	6	8g/	.	16ee\LL	.	1r	.	1r	.	4g\	us-	16ee\LL	us-	1ryy	1ryy
.	.	.	.	16cc#X\JJ	.	.	.	.	.	.	.	16cc#X\JJ	.	.	.
.	.	4e/	.	4a/	.	.	.	.	.	.	.	4a,\	-quae	.	.
.	.	.	.	.	.	.	.	.	.	8e\	-quae	.	.	.	.
8C#/	5	8e/	.	8g/	.	.	.	.	.	8e\	in	8g\	in	.	.
!	!	!LO:LB:g=original	!	!LO:LB:g=original	!	!	!	!	!	!	!	!	!	!	!
!LO:LB:g=original	!	!LO:TX:t=P:problem:mixed beam	!	!LO:TX:t=P:problem:mixed beam	!	!	!	!	!	!	!	!	!	!	!
8D/L	.	8A/L	.	8f#/L	.	.	.	.	.	16e\	Sae-	16g/	Sae-	.	.
.	.	.	.	.	.	.	.	.	.	16d\	-cu-	16f#/	-cu-	.	.
8DD/J	.	16cc#X\L	.	16ee\L	.	.	.	.	.	8d\	-lum,	8f#/	-lum,	.	.
.	.	16dd\JJ	.	16ff#\JJ	.	.	.	.	.	.	.	.	.	.	.
!	!	!LO:TX:t=P:problem:mixed beam	!	!	!	!	!	!	!	!LO:TX:a:t=problem:custos a	!	!	!	!	!
4r	.	8ee\L	.	(16gg\LL	.	.	.	.	.	4r	.	4r	.	.	.
.	.	.	.	16ee\)	.	.	.	.	.	.	.	.	.	.	.
.	.	8g/J	.	(16cc#X\	.	.	.	.	.	.	.	.	.	.	.
.	.	.	.	16a\JJ)	.	.	.	.	.	.	.	.	.	.	.
!	!	!	!	!	!	!	!	!	!	!LO:LB:g=original	!	!	!	!	!
=6	=6	=6	=6	=6	=6	=6	=6	=6	=6	=6	=6	=6	=6	=6	=6
!	!	!	!	!	!	!LO:TX:a:t=T&colon;	!	!	!	!LO:TX:a:t=T&colon;	!	!LO:TX:a:t=T&colon;	!	!	!
8r	.	16ff#\LL	f	16ff#\LL	.	8r	.	8r	.	8r	.	8r	.	1ryy	1ryy
.	.	16dd\	.	16dd\	.	.	.	.	.	.	.	.	.	.	.
8D\L	.	16aa\	.	16aa\	f	8D\	A	8f#\	A	8a\	A	8dd\	A	.	.
.	.	16ff#\JJ	.	16ff#\JJ	.	.	.	.	.	.	.	.	.	.	.
!	!	!	!	!	!	!	!	!	!	!	!	!LO:TX:a:t=SIC:l=solis	!	!	!
8E\	6|	16gg\LL	.	16gg\LL	.	8E\	so-	8e\	So-	8g\	so-	8cc#X\	so-	.	.
.	.	16ee\	.	16ee\	.	.	.	.	.	.	.	.	.	.	.
8A\J	#	16cc#X\	.	16cc#X\	.	8A\	-lis	8e\	-lis	8g\	-lis	8cc#\	-luš	.	.
.	.	16a\JJ	.	16a\JJ	.	.	.	.	.	.	.	.	.	.	.
8r	.	16ff#\LL	.	16ff#\LL	.	8D\	or-	8d\	or-	8f#\	or-	8dd\	or-	.	.
.	.	16dd\J	.	16dd\J	.	.	.	.	.	.	.	.	.	.	.
8D\L	.	8a\J	.	8a\J	.	8D\	-tu	8d\	-tu	8a\	-tu	8dd\	-tu	.	.
!	!	!	!	!	!	!	!	!	!	!LO:TX:a:t=SIC:l=usque	!	!LO:TX:a:t=SIC:l=usque	!	!	!
8F#\	.	8a\L	.	8a/L	.	16D\	us-	16f#\	us-	16a\	us-	16ccn\	us-	.	.
.	.	.	.	.	.	16D\	-q(ue)	16f#\	-q(ue)	16a\	-quae	16cc\	-quae	.	.
8D\J	.	8a\J	.	8a/J	.	16D\	ad	16f#\	ad	16a\	ad	16cc\	ad	.	.
!	!	!	!	!	!	!	!	!	!	!LO:TX:a:t=problem:nieczytelne o/oc	!	!	!	!	!
.	.	.	.	.	.	16D\	oc-	16f#\	oc-	16a\	oc-	16cc\	oc-	.	.
=7	=7	=7	=7	=7	=7	=7	=7	=7	=7	=7	=7	=7	=7	=7	=7
4G\	5	8b\L	.	8b\L	.	8G\	-ca-	8d\	-ca-	8g\	-ca-	8b\	-ca-	1ryy	1ryy
.	6	16gg\L	.	16gg\L	.	16G\	-sum	16B\	-ſum	16b\	-ſum	16ee,\	-sum	.	.
.	.	16ee\JJ	.	16ee\JJ	.	16G\	Lau-	16B\	Lau-	16g\	Lau-	16ee\	Lau-	.	.
4A\	4#	8dd\L	.	8dd\L	.	16A\	-da-	16A/	-da-	16f#\	-da-	16dd\	-da-	.	.
.	.	.	.	.	.	16A\	-bi-	16A/	-bi-	16f#\	-bi-	16dd\	-bi-	.	.
.	.	8cc#X\J	.	8cc#X\J	.	8A\	-le	8A/	-le	8g\	-le	8cc#X\	-le	.	.
!	!	!	!	!	!	!	!	!LO:TX:a:t=SIC:s=B	!	!	!	!LO:LB:g=original	!	!	!
8r	.	16ddd\LL	.	16ddd\LL	.	8B\	no-	8A\	no-	8f#\	no-	8dd\	no-	.	.
.	.	16bb\	.	16bb\	.	.	.	.	.	.	.	.	.	.	.
16F#\LL	6	16aa\	.	16aa\	.	16F#\LL	-men	8d\	-men	16a\LL	-men	8dd,\	-men	.	.
16G\JJ	.	16gg\JJ	.	16gg\JJ	.	16G\JJ	.	.	.	16b\JJ	.	.	.	.	.
!LO:TX:t=P:problem:mixed beam	!	!	!	!	!	!	!	!	!	!	!	!	!	!	!
8A\L	4	16ff#\LL	.	16ff#\LL	.	8.A\	Do-	16f#\LL	Do-	8.a\	Do-	16a\LL	Do-	.	.
.	.	16ee\	.	16ee\	.	.	.	16e\JJ	.	.	.	16g\JJ	.	.	.
8AA/J	#	16dd\	.	16dd\	.	.	.	16d\LL	-mi-	.	.	16f#/LL	-mi-	.	.
.	.	16cc#X\JJ	.	16cc#X\JJ	.	16A\	-mi-	16c#X\JJ	.	16a\	-mi-	16e/JJ	.	.	.
!	!	!	!	!	!	!LO:LB:g=original	!	!	!	!	!	!	!	!	!
=8	=8	=8	=8	=8	=8	=8	=8	=8	=8	=8	=8	=8	=8	=8	=8
!	!	!	!	!LO:TX:t=P:problem:mixed beam	!	!	!	!	!	!	!	!	!	!	!
4D\	.	4dd\	.	8dd\L	.	4D\	-ni,	4d\	-ni,	4a\	-ni,	8d,/	-ni,	1ryy	1ryy
!	!	!	!	!	!LO:DY:a	!	!	!	!	!	!	!	!	!	!
!	!	!	!	!	!LO:DY:t=pi:	!	!	!	!	!	!	!	!	!	!
.	.	.	.	8d/	p	.	.	.	.	.	.	8d/	ex-	.	.
4r	.	8r	.	8e/	.	4r	.	4r	.	4r	.	8e/	-cel-	.	.
!	!	!	!LO:DY:t=pi:	!	!	!	!	!	!	!	!	!	!	!	!
!	!	!	!LO:DY:a	!LO:PB:g=original	!	!	!	!	!	!	!	!	!	!	!
.	.	8d/	p	8f#/J	.	.	.	.	.	.	.	8f#,/	-sus	.	.
2r	.	8e/L	.	8g\L	.	2r	.	2r	.	2r	.	8g\	Su-	.	.
.	.	8f#/J	.	8a\	.	.	.	.	.	.	.	8a\	-per	.	.
.	.	8.g/L	.	8b\	.	.	.	.	.	.	.	8b\	om-	.	.
.	.	.	.	8cc#X\J	.	.	.	.	.	.	.	8cc#X\	-nes	.	.
.	.	32f#/LL	.	.	.	.	.	.	.	.	.	.	.	.	.
.	.	32e/JJJ	.	.	.	.	.	.	.	.	.	.	.	.	.
!	!	!LO:LB:g=original	!	!	!	!	!	!LO:LB:g=original	!	!	!	!	!	!	!
=9	=9	=9	=9	=9	=9	=9	=9	=9	=9	=9	=9	=9	=9	=9	=9
!	!	!	!	!	!	!	!	!	!	!LO:TX:a:t=1	!	!LO:TX:a:t=S&colon;	!	!	!
!	!	!	!	!	!	!	!	!	!	!LO:TX:a:t=problem:custos a	!	!	!	!	!
2r	.	4d/	.	8dd\L	.	2r	.	1r	.	1r	.	8dd\	gen-	1ryy	1ryy
.	.	.	.	16ee\L	.	.	.	.	.	.	.	16ee\LL	-teš	.	.
.	.	.	.	16ff#\JJ	.	.	.	.	.	.	.	16ff#,\JJ	.	.	.
.	.	8c#X/L	.	16gg\LL	.	.	.	.	.	.	.	8.gg\	Do-	.	.
.	.	.	.	16aa\	.	.	.	.	.	.	.	.	.	.	.
.	.	8A/J	.	16bb\	.	.	.	.	.	.	.	.	.	.	.
.	.	.	.	16ccc#X\JJ	.	.	.	.	.	.	.	16gg\	-mi-	.	.
8r	.	8d/	.	4ddd\	.	8r	.	.	.	.	.	8ff#,\	-nus,	.	.
!LO:TX:a:t=S&colon;	!	!	!	!	!	!LO:TX:a:t=S&colon;	!	!	!	!	!	!	!	!	!
8D\L	.	4f#/	.	.	.	8D\	Et	.	.	.	.	8a\	Et	.	.
8F#\	.	.	.	4r	.	8D\	Su-	.	.	.	.	8dd\	Su-	.	.
8D\J	.	8g/	.	.	.	8D\	-per	.	.	.	.	8ee\	-per	.	.
!	!	!	!	!	!	!	!	!	!	!LO:PB:g=original	!	!	!	!	!
=10	=10	=10	=10	=10	=10	=10	=10	=10	=10	=10	=10	=10	=10	=10	=10
4D\	.	4a/	.	4aa`\	.	8d\	cae-	2r	.	2r	.	8ff#\	cae-	1ryy	1ryy
.	.	.	.	.	.	8d\	-los	.	.	.	.	8ff#\	-los	.	.
8r	.	4ccn\	.	4ff#`\	.	16c\LL	glo-	.	.	.	.	8ff#\	glo-	.	.
.	.	.	.	.	.	16A\JJ	.	.	.	.	.	.	.	.	.
8D\	.	.	.	.	.	16F#\	-ri-	.	.	.	.	16ff#\	-ri-	.	.
.	.	.	.	.	.	16D\	-a	.	.	.	.	16ff#\	-a	.	.
!	!	!	!	!LO:TX:t=P:problem:mixed beam	!	!	!	!	!	!	!	!LO:LB:g=original	!	!	!
4G\	.	4b\	.	8gg\L	.	8B\	e-	4r	.	4r	.	16gg\LL	e-	.	.
.	.	.	.	.	.	.	.	.	.	.	.	16dd\JJ	.	.	.
!	!	!	!	!	!	!LO:TX:a:t=problem:s na końcu z przecinkiem/kreseczką w prawym górnym indeksie	!	!	!	!	!	!	!	!	!
.	.	.	.	8g/J	.	8G\	-jus,	.	.	.	.	8dd,\	-juš,	.	.
!LO:TX:b:t=T&colon;	!	!	!	!	!	!LO:TX:a:t=T&colon;	!	!	!	!	!	!	!	!	!
!LO:TX:a:t=T&colon;	!	!	!LO:DY:a	!	!LO:DY:a	!LO:TX:a:t=problem:s na końcu z przecinkiem/kreseczką w prawym górnym indeksie	!	!	!	!LO:TX:a:t=problem:s na końcu quis z przecinkiem/kreseczką w prawym górnym indeksie	!	!LO:TX:a:t=problem: quis z przecinkiem/kreseczką w prawym górnym indeksie	!	!	!
4A\	6n	4cc\	f	4ffn\	f	4A\	quis	4c\	Quis	4a\	Quis	4ffn\	Quis,	.	.
!LO:LB:g=original	!	!	!	!	!	!	!	!	!	!	!	!	!	!	!
=11	=11	=11	=11	=11	=11	=11	=11	=11	=11	=11	=11	=11	=11	=11	=11
!	!	!	!	!	!	!	!	!	!	!LO:TX:a:t=T&colon;	!	!LO:TX:a:t=T&colon;	!	!	!
8r	.	16aa\LL	.	16aa\LL	.	8r	.	8r	.	8r	.	8r	.	1ryy	1ryy
.	.	16ffn\	.	16ffn\	.	.	.	.	.	.	.	.	.	.	.
!LO:TX:t=P:problem:mixed beam	!	!	!	!	!	!	!	!	!	!	!	!	!	!	!
8A\L	6n	16aa\	.	16aa\	.	8A\	{quis}	8c\	{quis}	8a\	quis	8ffn\	quis	.	.
.	.	16ff\JJ	.	16ff\JJ	.	.	.	.	.	.	.	.	.	.	.
8B\	4	8ee\L	.	8ee\L	.	8B\	Si-	8e\	Si-	8g\	Si-	8ee\	Si-	.	.
8BB/J	#	8dd#X\J	.	8dd#X\J	.	8BB/	-cut	8B\	-cut	8f#\	-cut	8dd#X,\	-cut	.	.
!	!	!LO:TX:t=P:problem:mixed beam	!	!	!	!	!	!	!	!	!	!	!	!	!
4E\	.	8ee\L	.	8ee\L	.	16E\	Do-	16B\	Do-	16g\	Do-	16ee\	Do-	.	.
.	.	.	.	.	.	16E\	-mi-	16B\	-mi-	16g\	-mi-	16b\	-mi-	.	.
.	.	8g/	.	8b\	.	8E\	-nus	8B\	-nus	8g\	-nus	8b,\	-nus	.	.
4D#X\	7	8a/	.	8cc\	.	8D#X\	De-	8r	.	8a\	De-	8cc\	De-	.	.
.	.	8f#/J	.	8a\J	.	8D#\	-us	16B\	De-	8f#\	-us	8a\	-us	.	.
.	.	.	.	.	.	.	.	16B\	-us	.	.	.	.	.	.
=12	=12	=12	=12	=12	=12	=12	=12	=12	=12	=12	=12	=12	=12	=12	=12
!	!	!LO:TX:a:t=t&colon;	!	!LO:TX:a:t=t&colon;	!	!	!	!	!	!	!	!	!	!	!
4E\	9	8f#/L	.	8a/L	.	8E\	no-	8B\	no-	8f#\	no-	8a\	no-	1ryy	1ryy
.	8	8e/J	.	8g/J	.	8E\	-ſter	8B\	-ſter.	8e\	-ſter	8g,\	-ſter,	.	.
!	!	!	!	!	!LO:DY:a	!	!	!	!	!	!	!LO:TX:a:t=S&colon;	!	!	!
!	!	!	!	!	!LO:DY:t=pi:	!	!	!	!	!	!	!	!	!	!
4r	.	16r	.	4b\	p	4r	.	4r	.	4r	.	8b\	Qui	.	.
!	!	!	!LO:DY:a	!	!	!	!	!	!	!	!	!	!	!	!
.	.	16g/LL	p	.	.	.	.	.	.	.	.	.	.	.	.
.	.	16f#/	.	.	.	.	.	.	.	.	.	8b\	in	.	.
.	.	16e/JJ	.	.	.	.	.	.	.	.	.	.	.	.	.
2r	.	8d#X/L	.	8.aa\L	.	2r	.	2r	.	2r	.	8.aa\	Al-	.	.
.	.	8B/J	.	.	.	.	.	.	.	.	.	.	.	.	.
.	.	.	.	16gg\K	.	.	.	.	.	.	.	16gg\	-tis	.	.
.	.	4A#X/	.	8ff#\	.	.	.	.	.	.	.	8ff#\	ha-	.	.
.	.	.	.	8ee\J	.	.	.	.	.	.	.	8ee\	-bi-	.	.
!	!	!	!	!LO:LB:g=original	!	!LO:PB:g=original	!	!	!	!	!	!	!	!	!
=13	=13	=13	=13	=13	=13	=13	=13	=13	=13	=13	=13	=13	=13	=13	=13
!	!	!	!	!LO:TX:t=P:problem:mixed beam	!	!LO:TX:a:t=2	!	!LO:TX:a:t=2	!	!LO:TX:a:t=3	!	!	!	!	!
4r	.	4B/	.	8dd#X\L	.	0r	.	0r	.	0r	.	4dd#X,\	-tat,	1ryy	1ryy
.	.	.	.	8B/J	.	.	.	.	.	.	.	.	.	.	.
8r	.	8r	.	[4b/	.	.	.	.	.	.	.	8b\	et	.	.
8BB/	#	8d#X/	.	.	.	.	.	.	.	.	.	8b\	hu-	.	.
8C/L	7	8e/L	.	16b/LL]	.	.	.	.	.	.	.	8.b\	-mi-	.	.
.	.	.	.	16a/	.	.	.	.	.	.	.	.	.	.	.
8C/	6	8e/	.	16g#X/	.	.	.	.	.	.	.	.	.	.	.
.	.	.	.	16a/JJ	.	.	.	.	.	.	.	16a\	-li-	.	.
8C/	.	8e/	.	8a/L	.	.	.	.	.	.	.	4a\	-a	.	.
8C/J	.	8e/J	.	8a/J	.	.	.	.	.	.	.	.	.	.	.
!	!	!LO:LB:g=original	!	!	!	!	!	!	!	!	!	!LO:LB:g=original	!	!	!
=14	=14	=14	=14	=14	=14	=14	=14	=14	=14	=14	=14	=14	=14	=14	=14
8D#X/L	.	8f#/L	.	4.cc\	.	.	.	.	.	.	.	8.a\	res-	1ryy	1ryy
8D#/	.	8f#/	.	.	.	.	.	.	.	.	.	.	.	.	.
.	.	.	.	.	.	.	.	.	.	.	.	16a\	-pi-	.	.
8D#/	.	8f#/	.	.	.	.	.	.	.	.	.	8cc,\	-cit	.	.
8D#/J	.	8f#/J	.	8a/	.	.	.	.	.	.	.	8a\	in	.	.
4E\	.	16e/LL	.	16g\LL	.	.	.	.	.	.	.	16g\LL	cae-	.	.
.	.	16g/J	.	16b\J	.	.	.	.	.	.	.	16b\JJ	.	.	.
.	.	8g/J	.	8ee\J	.	.	.	.	.	.	.	8ee,\	-lo	.	.
!	!	!	!	!LO:TX:t=P:problem:mixed beam	!	!	!	!	!	!	!	!	!	!	!
8r	.	4g/	.	8ee\L	.	.	.	.	.	.	.	8ee\	et	.	.
8c\	.	.	.	8e/J	.	.	.	.	.	.	.	8e/	in	.	.
=15	=15	=15	=15	=15	=15	=15	=15	=15	=15	=15	=15	=15	=15	=15	=15
8B\L	#	8A/L	.	8d#X/L	.	4r	.	4r	.	1r	.	8d#X/	ter-	1r	1r
8E\J	.	8G/J	.	8e/J	.	.	.	.	.	.	.	8e,/	-ra,	.	.
!LO:TX:a:t=T&colon;	!	!	!	!	!	!	!	!	!	!	!	!	!	!	!
!LO:TX:b:t=T&colon;	!	!	!LO:DY:a	!	!LO:DY:a	!	!	!	!	!	!	!LO:TX:a:t=T&colon;	!	!	!
4E\	6	4cc\	f	4ccn\	f	16G\	Su-	16e\	Su-	.	.	16cc\	Su-	.	.
.	.	.	.	.	.	16G\	-sci-	16e\	-sci-	.	.	16cc\	-sci-	.	.
!	!	!	!	!	!	!LO:TX:a:t=problem:pionowa kreska nad s	!	!	!	!	!	!	!	!	!
.	.	.	.	.	.	16G\	-tans	16e\	-tans	.	.	16cc\	-tans	.	.
.	.	.	.	.	.	16G\	ā	16e\	a	.	.	16cc\	à	.	.
8E\L	.	16cc\LL	.	16cc\LL	.	8G\	ter-	8e\	ter-	.	.	8cc\	ter-	.	.
.	.	16ee\JJ	.	16ee\JJ	.	.	.	.	.	.	.	.	.	.	.
8E\	.	4gg\	.	4gg\	.	8G\	-ra	8e\	-ra	.	.	8cc\	-ra	.	.
!	!	!	!	!	!	!LO:TX:a:t=problem:n z poziomą kreską u góry	!	!	!	!	!	!	!	!	!
8E\	.	.	.	.	.	16G\	in-	16e\	in-	.	.	16cc\	in-	.	.
.	.	.	.	.	.	16G\	-o-	16e\	-o-	.	.	16cc\	-ó-	.	.
8E\J	.	8cc\	.	8cc\	.	8G\	-pem.	8e\	-pem	.	.	8cc\	-pem,	.	.
!LO:LB:g=original	!	!	!	!	!	!	!	!	!	!	!	!	!	!	!
=16	=16	=16	=16	=16	=16	=16	=16	=16	=16	=16	=16	=16	=16	=16	=16
8E\L	4# 2	8a#X/L	.	8a#X/L	.	2r	.	8c#X\	et	8f#\	ut	8a#X\	et	1ryy	1ryy
8D#X\J	6	8b/J	.	8b/J	.	.	.	8B\	de	8f#\	col-	8b\	de	.	.
!	!	!	!	!	!	!	!	!LO:LB:g=original	!	!	!	!	!	!	!
8r	.	4aan\	.	4aan\	.	.	.	16B\	ſter-	8f#\	-lo-	16b\	ster-	.	.
.	.	.	.	.	.	.	.	16B\	-co-	.	.	16b\	-co-	.	.
8BB/	#	.	.	.	.	.	.	8B\	-re	8f#\	-cet	8b\	-re	.	.
!	!	!	!	!	!	!	!	!	!	!	!	!LO:TX:a:t=SIC:l=erigens	!	!	!
8B\L	6 4	16gg\LL	.	16gg\LL	.	4r	.	16B\	e-	8g\	e-	16b\	er-	.	.
.	.	16ee\	.	16ee\	.	.	.	16B\	-ri-	.	.	16b\	-ri-	.	.
8A\	6 4#	16ff#\	.	16ff#\	.	.	.	8d#X\	-gens	8f#\	-um	8b\	-gens	.	.
.	.	16dd#X\JJ	.	16dd#X\JJ	.	.	.	.	.	.	.	.	.	.	.
8G\	6	16ee\LL	.	16ee\LL	.	(8G\L	qui	8.e\	Pau-	8e\	cum	8.b\	pau-	.	.
.	.	16b\	.	16b\	.	.	.	.	.	.	.	.	.	.	.
8A\J	6	16aa\	.	16aa\	.	8A\J)	.	.	.	8f#\	Prin-	.	.	.	.
.	.	16ff#\JJ	.	16ff#\JJ	.	.	.	16d#\	-pe-	.	.	16b\	-pe-	.	.
!	!	!	!	!LO:LB:g=original	!	!	!	!	!	!	!	!LO:LB:g=original	!	!	!
=17	=17	=17	=17	=17	=17	=17	=17	=17	=17	=17	=17	=17	=17	=17	=17
8B\L	6 4	16gg\LL	.	16gg\LL	.	8B\	ha-	4e\	-rem	16g\	-ci-	4b\	-rem,	1ryy	1ryy
.	.	16ee\	.	16ee\	.	.	.	.	.	16g\	-pi-	.	.	.	.
8A\	6 4#	16ff#\	.	16ff#\	.	8A\	-bi-	.	.	8f#\	-bus	.	.	.	.
.	.	16dd#X\JJ	.	16dd#X\JJ	.	.	.	.	.	.	.	.	.	.	.
8G\	6	16ee\LL	.	16ee\LL	.	8G\	-ta-	4r	.	8e\	cum	4r	.	.	.
.	.	16cc\	.	16cc\	.	.	.	.	.	.	.	.	.	.	.
8A\J	6	16b\	.	16b\	.	8A\	-re	.	.	8f#\	Prin-	.	.	.	.
.	.	16a\JJ	.	16a\JJ	.	.	.	.	.	.	.	.	.	.	.
*	*	*	*	*	*	*	*	*2\right	*	*	*	*	*	*	*
!	!	!	!	!	!	!	!	!	!	!LO:LB:g=original	!	!	!	!	!
8B\L	6: 4:	2g/	.	2g/	.	8B\	fa-	2e\	Ma-	16g\	-ci-	2r	.	.	.
.	.	.	.	.	.	.	.	.	.	16g\	-pi-	.	.	.	.
8B\	.	.	.	.	.	8B\	-cit	.	.	8g\	-bus	.	.	.	.
8B\	.	.	.	.	.	16B\	Ste-	.	.	8g\	Po-	.	.	.	.
.	.	.	.	.	.	16B\	-ri-	.	.	.	.	.	.	.	.
8B\J	.	.	.	.	.	16B\	-lem	.	.	16g\	-pu-	.	.	.	.
.	.	.	.	.	.	16B\	in	.	.	16g\	-li	.	.	.	.
!	!	!LO:LB:g=original	!	!	!	!	!	!	!	!	!	!	!	!	!
=18	=18	=18	=18	=18	=18	=18	=18	=18	=18	=18	=18	=18	=18	=18	=18
!	!	!	!	!	!	!	!	!	!	!LO:TX:a:t=problem:s z nieczytelnym symbolem w prawym górnym indeksie	!	!	!	!	!
8r	.	4f#/	.	4f#/	.	8B\	Do-	4B\	-trem	8f#\	Su-	4dd\	Ma-	1ryy	1ryy
8BB/L	5 3	.	.	.	.	8BB/	-mo:	.	.	8f#\	-i,	.	.	.	.
8BB/	6|	4g#X/	.	4g#X/	.	8BB/	ma-	8G#X/	fi-	4r	.	4dd,\	-trem	.	.
8BB/J	.	.	.	.	.	8BB/	-trem	8G#/	-li-	.	.	.	.	.	.
!	!	!	!	!	!	!LO:TX:a:t=problem:custos C	!	!	!	!	!	!	!	!	!
!	!	!	!	!	!	!LO:LB:g=original	!	!	!	!	!	!	!	!	!
8C/L	6	4a/	.	4a/	.	8C/	fi-	4A\	-o-	4r	.	8cc\	fi-	.	.
8C/	.	.	.	.	.	8C/	-li-	.	.	.	.	8a\	-li-	.	.
!	!	!LO:TX:t=P:problem:mixed beam	!	!LO:TX:t=P:problem:mixed beam	!	!	!	!	!	!	!	!	!	!	!
8C/	6#	8ee\L	.	8ee\L	.	8C/	-o-	8e\	-rum	4f#\	Lae-	8a#X\	-o-	.	.
!	!	!	!	!	!	!	!	!LO:TX:a:t=SIC:l=Laetantem	!	!	!	!	!	!	!
8C/J	.	8a#X/J	.	8a#X/J	.	16C/	-rum	8e\	Lae-	.	.	16a#,\	-rum	.	.
.	.	.	.	.	.	16C/	Lae-	.	.	.	.	16a#\	Lae-	.	.
=19	=19	=19	=19	=19	=19	=19	=19	=19	=19	=19	=19	=19	=19	=19	=19
!LO:TX:t=P:problem:mixed beam	!	!	!	!	!	!	!	!	!	!	!	!	!	!	!
8BB/L	#	8b/L	.	8b/L	.	8BB/	-tan-	8d#X\	-tan-	8f#\	-tan-	8b\	-tan-	1ryy	1ryy
8B\J	.	8B/J	.	8B/J	.	8B\	-tem	8d#\	-ten.	8f#\	-tem	8b,\	-tem,	.	.
!	!	!	!LO:DY:t=pi:	!	!LO:DY:t=pi:	!	!	!	!	!	!	!	!	!	!
!	!	!	!LO:DY:a	!	!LO:DY:a	!	!	!	!	!	!	!LO:TX:a:t=S&colon;	!	!	!
4r	.	4b\	p	4ddn\	p	4r	.	4r	.	4r	.	8dd\	glo-	.	.
.	.	.	.	.	.	.	.	.	.	.	.	16dd\	-ri-	.	.
.	.	.	.	.	.	.	.	.	.	.	.	16dd\	-a	.	.
!LO:TX:a:t=S&colon;	!	!	!	!	!	!	!	!	!	!	!	!	!	!	!
4F#\	6 4	(16b\LL	.	(16dd\LL	.	2r	.	2r	.	2r	.	(16dd\LL	Pa-	.	.
.	5 3	16a\J)	.	16cc\J)	.	.	.	.	.	.	.	16cc\JJ)	.	.	.
.	.	8a\J	.	8cc\J	.	.	.	.	.	.	.	16cc,\	-tri	.	.
.	.	.	.	.	.	.	.	.	.	.	.	16cc\	et	.	.
4G\	4 9	(16a/LL	.	(16cc\LL	.	.	.	.	.	.	.	16cc\	fi-	.	.
.	3 8	16g/J)	.	16b\J)	.	.	.	.	.	.	.	16b\	-li-	.	.
.	.	8g/J	.	8b\J	.	.	.	.	.	.	.	8b\	-o,	.	.
=20	=20	=20	=20	=20	=20	=20	=20	=20	=20	=20	=20	=20	=20	=20	=20
!	!	!	!	!	!	!	!	!LO:TX:a:t=3	!	!	!	!	!	!	!
4BB/	6	8g/	.	4gg\	.	0r	.	0r	.	2r	.	8dd\	et	1ryy	1ryy
.	.	4g/	.	.	.	.	.	.	.	.	.	8dd\	Spi-	.	.
4C/	5	.	.	16ee\LL	.	.	.	.	.	.	.	(16ee\LL	-ri-	.	.
.	6	.	.	16cc\	.	.	.	.	.	.	.	16cc\JJ)	.	.	.
.	.	8e/	.	16a\	.	.	.	.	.	.	.	16a\	-tu-	.	.
.	.	.	.	16g\JJ	.	.	.	.	.	.	.	16g\	-i	.	.
!	!	!	!	!LO:TX:a:t=t&colon;	!	!	!	!	!	!	!	!LO:LB:g=original	!	!	!
4D/	9 4	8e/L	.	8g/L	.	.	.	.	.	4r	.	8g/	San-	.	.
.	8 3	8d/J	.	8f#/J	.	.	.	.	.	.	.	8f#,/	-cto,	.	.
!	!	!	!	!	!	!	!	!	!	!LO:TX:a:t=S&colon;	!	!	!	!	!
8r	.	8r	.	8r	.	.	.	.	.	16f#\LL	Si-	16a\LL	Si-	.	.
.	.	.	.	.	.	.	.	.	.	16g\JJ	.	16b\JJ	.	.	.
16E\LL	6 4	8a/	.	8cc\	.	.	.	.	.	8a\	-cut	8cc\	-cut	.	.
16F#\JJ	.	.	.	.	.	.	.	.	.	.	.	.	.	.	.
!LO:LB:g=original	!	!	!	!LO:LB:g=original	!	!	!	!	!	!	!	!	!	!	!
=21	=21	=21	=21	=21	=21	=21	=21	=21	=21	=21	=21	=21	=21	=21	=21
4G\	4 9	8a/L	.	(8cc\L	.	.	.	.	.	8a\	e-	8cc\	e-	1ryy	1ryy
.	3 8	8g/J	.	8b\J)	.	.	.	.	.	8g\	-rat	8b,\	-rat	.	.
8r	.	8r	.	8r	.	.	.	.	.	16a\LL	in	16cc\LL	in	.	.
.	.	.	.	.	.	.	.	.	.	16b\JJ	.	16dd\JJ	.	.	.
8G\	6: 4:	8cc\	.	8ee\	.	.	.	.	.	8cc\	Prin-	8ee\	prin-	.	.
!LO:TX:t=P:problem:mixed beam	!	!	!	!	!	!	!	!	!	!	!	!	!	!	!
8GG/L	.	8cc\L	.	(8ee\L	.	.	.	.	.	16cc\	-ci-	16ee\	-ci-	.	.
.	.	.	.	.	.	.	.	.	.	16b\	-pi-	16dd\	-pi-	.	.
8G\J	5	8b\J	.	16dd\L)	.	.	.	.	.	16b\	-o	16dd,\	-o	.	.
.	.	.	.	16gg\JJ	.	.	.	.	.	16b\	et	16gg\	et	.	.
!	!	!	!	!	!	!	!	!	!	!LO:TX:a:t=problem:custos b	!	!	!	!	!
!	!	!	!	!	!	!	!	!	!	!LO:LB:g=original	!	!	!	!	!
4r	.	8d/L	.	(8ff#\L	.	.	.	.	.	8a\	nunc	8ff#\	nunc	.	.
.	.	8f#/J	.	8ee\J)	.	.	.	.	.	8cc\	et	8ee\	et	.	.
=22	=22	=22	=22	=22	=22	=22	=22	=22	=22	=22	=22	=22	=22	=22	=22
8BB/L	6	8g/	.	8dd\L	.	2r	.	1r	.	8b\	Sem-	8dd\L	Sem-	1ryy	1ryy
8C/	.	4g/	.	16ee\L	.	.	.	.	.	4g\	.	16ee\L	.	.	.
.	.	.	.	8qqdd/	.	.	.	.	.	.	.	8qqdd/	.	.	.
.	.	.	.	16cc\JJ	.	.	.	.	.	.	.	16cc\JJ	.	.	.
8D/	4	.	.	8b/L	.	.	.	.	.	.	.	8b\L	.	.	.
8D/J	3	8f#/	.	8a/J	.	.	.	.	.	8f#\	.	8a\J	.	.	.
4G\	.	4B/	.	8G/L	.	4r	.	.	.	8g\	-per	8g,/	-per,	.	.
!	!	!	!	!	!	!	!	!	!	!LO:TX:a:t=T&colon;	!	!	!	!	!
.	.	.	.	8d/J	.	.	.	.	.	16d\	et	16d/	et	.	.
.	.	.	.	.	.	.	.	.	.	16d\	in	16d/	in	.	.
8r	.	8r	.	[4g/	.	8r	.	.	.	8g\	Sae-	8g/	Sae-	.	.
!LO:TX:a:t=T&colon;	!	!	!LO:DY:a	!	!	!	!	!	!	!	!	!	!	!	!
8GG/	.	8B/	f	.	.	8G\	Sae-	.	.	16g\	-cu-	16g/	-cu-	.	.
.	.	.	.	.	.	.	.	.	.	16g\	-la	16g/	-la	.	.
!	!	!LO:LB:g=original	!	!	!	!	!	!	!	!	!	!	!	!	!
=23	=23	=23	=23	=23	=23	=23	=23	=23	=23	=23	=23	=23	=23	=23	=23
!	!	!	!	!	!	!	!	!	!	!	!	!LO:TX:a:t=T&colon;	!	!	!
4.C#X/	5	8e/L	.	8g/L]	.	8C#X/	.	8e\	Sae-	8g\	Sae-	8g/	Sae-	1ryy	1ryy
.	7	16f#/L	.	16a/L	.	8C#/	-cu-	8e\	-cu-	16a\LL	-cu-	16a\LL	-cu-	.	.
.	.	16g/JJ	.	16b/JJ	.	.	.	.	.	16b\JJ	.	16b\JJ	.	.	.
.	6 4	8e/L	.	8a/L	.	4C#/	-lo-	4e\	-lo-	8a\	-lo-	8a\	-lo-	.	.
8C#/	5	8e/J	.	8g/J	.	.	.	.	.	8g\	-rum	8g\	-rum	.	.
!	!	!	!	!	!	!	!	!	!	!	!	!LO:LB:g=original	!	!	!
4D/	.	4d/	.	8f#/L	.	4D/	-rum	4A\	-rum	8f#\	a-	8f#/	a-	.	.
.	.	.	.	8d/J	.	.	.	.	.	8d\	-men	8d/	-men	.	.
8r	.	8r	.	[4cc\	.	8r	.	8r	.	8r	.	[4cc\	a-	.	.
16A\LL	6	16ff#\LL	.	.	.	16A\LL	a-	8d\	a-	[8a\	a-	.	.	.	.
16G\JJ	8	16gg\JJ	.	.	.	16G\JJ	.	.	.	.	.	.	.	.	.
=24	=24	=24	=24	=24	=24	=24	=24	=24	=24	=24	=24	=24	=24	=24	=24
!LO:TX:t=P:problem:mixed beam	!	!	!	!	!	!	!	!	!	!	!	!	!	!	!
8F#\L	.	8aa\	.	16cc\LL]	.	8F#\L	.	4d\	-men	8a\]	.	8cc\L]	.	1ryy	1ryy
.	.	.	.	16aa\	.	.	.	.	.	.	.	.	.	.	.
8G\	.	4gg\	.	16b\	.	8G\J	.	.	.	4g\	.	8b\J	.	.	.
.	.	.	.	16gg\JJ	.	.	.	.	.	.	.	.	.	.	.
8C/	6 5	.	.	8a\L	.	8C/L	.	8e\L	{a-	.	.	4a\	.	.	.
8D/J	.	8ff#\	.	8ff#\J	.	8D/J	.	8d\J	.	8f#\	.	.	.	.	.
4GG/	.	4G/ 4d 4b 4gg	.	4d/ 4b 4gg	.	4GG/	-men.	4B\	men}	4g\	-men.	4g\	-men.	.	.
4r	.	4r	.	4r	.	4r	.	4r	.	4r	.	4r	.	.	.
==	==	==	==	==	==	==	==	==	==	==	==	==	==	==	==
*-	*-	*-	*-	*-	*-	*-	*-	*-	*-	*-	*-	*-	*-	*-	*-
!!!system-decoration:[(g1)][(g2)][(g3)]{g4}
!!!RDF**kern: i = editorial accidental
!!!RDF**kern: >= above
!!!RDF**kern: <= below
!!!RDF**dynam: f=for:
!!!RDF**dynam: p=pia:
!!!ENC: Anna Matuszewska
!!!END: 2020-07-14
